X: 7
T: The Mug Of Brown Ale
R: jig
M: 6/8
L: 1/8
K: Ador
gf |: eAA fAA | egg age | dBA G2A | BAB dBd |
e2A f2A | egg age | dBB gBB | BAG A3 :|
efg aba | aba age | ded ~g3 | gaf ged |
efg a2a | aba age | dBB gBB | BAG A3 :|


Tune 888	Setting 25893

